!!!ONR: No. 49
!! From Harold Courlander, "Haiti Singing"
!! Chapel Hill: University of North Carolina Press, 1939
!! Copyright University of North Carolina Press
!!!ENC: D. Huron
**kern
*clefG2
*k[]
*M2/4
=1-
4r
8dd
8ee
=
8gg
8dd
8dd
8ee
=
4gg
8dd
8ee
=
8dd
8b
8b
8dd
=
4dd
8g
8a
=
8b
8g
8a
8g
=
4d
8g
8a
=
8g
8e
8e
8g
=
4g
8b
8dd
=
8ee
8dd
8ee
8dd
=
4ee
8dd
8ee
=
8dd
8b
8b
8dd
=
4dd
8g
8a
=
8b
8g
8a
8g
=
4d
8g
8b
=
8g
8e
8e
8g
=
2g
==
*-
